X:1
T:Fulham
T:Harrison
T:Fulham
C:Harrison
%%score { ( 1 2 ) | ( 3 4 ) }
L:1/8
Q:1/2=120
M:3/2
K:F
V:1 treble nm="Piano" snm="Pno."
V:2 treble 
V:3 bass 
V:4 bass 
V:1
 c4 F4 F4 | G8 A4 | (d4 c4) B4 | A12 | A4 B4 A4 | (A4 G4) c4 | c8 =B4 | c12 | B4 A4 G4 | A8 A4 | %10
 A8 G4 | F12 | A4 A4 d4 | (d4 c4) F4 | (A4 B4) G4 | F12 |] %16
V:2
 F4 F4 F4 | (F4 E4) F4 | (F4 E4) G4 | F12 | F4 F4 F4 | D8 G4 | (F4 E4) D4 | E12 | E4 E4 E4 | %9
 E8 D4 | (C4 D4) E4 | D12 | F4 E4 D4 | (E4 F4) F4 | F8 E4 | F12 |] %16
V:3
 A,4 A,4 A,4 | C8 C4 | (B,2 A,2 G,4) C4 | C12 | C4 D4 C4 | =B,8 C4 | (A,4 G,4) G,4 | G,12 | %8
 G,4 A,4 B,4 | (A,4 G,4) F,4 | E,8 A,4 | A,12 | A,4 A,4 B,4 | (B,4 A,4) A,4 | (C4 D4) B,4 | A,12 |] %16
V:4
 F,4 F,4 D,4 | C,8 F,4 | (B,,4 C,4) E,4 | F,12 | F,4 F,4 F,4 | F,8 E,4 | D,8 G,,4 | C,12 | %8
 C,4 C,4 C,4 | ^C,8 D,4 | (A,,4 =B,,4) ^C,4 | D,12 | D,4 C,4 B,,4 | (G,,4 A,,4) D,4 | C,8 C,4 | %15
 F,12 |] %16

